X: 176
T:the Farewell
B:William Marshall Volume 2nd Of A Collection Of Scottish Melodies (1845)
C:William Marshall
L:1/8
M:4/4
N:Slow with much expression
O:Scotland
R:Air
Z:Clark Bernst
%%Page:35 - 1
F:http://richardrobinson.tunebook.org.uk/tune/4019
%%TBL:{"version":1,"type":"tune","id":"4019"}
K:E
G3/4A/4 [| \
B3/2A/G3/2{G}F/ E/G/B/e/ g3/2e/ | f/B/f/g/ {b}ag/a/ {g}f F/G/ FG/A/ |
B3/2{B}A/G3/2{G}F/ (3E/G/B/ (3e/g/b/ ag/f/ | f/e/d/c/ B/d/e/f/ ge e G/A/ |
B3/2A/ GG/F/ E/G/B/e/ g3/2e/ | f/B/f/g/ {b}ag/a/ {g}f F/G/ FG/A/ | \
B3/2A/G{G}F (3E/G/B/ (3e/g/b/ ag/f/ | f/e/d/c/ c/B/A/G/ BE E g3/4a// [|
b3/2e/g3/2b/ {d}e3/2{fede}f/g3/2e/ | a3/2f/ g/b/a/g/ f F3/4G/4 F g/a/ |
be g/4a/4g/4f/4e/d/ f/e/d/c/ c/B/A/G/ | A/c/B/e/ d/f/B/a/ ge e g/a/ |
b3/2e/g3/2d/ eE c/B/A/G/ | B,/E/G/B/ A/c/d/e/ {e}g3/2f/ f G/A/ |
B3/2A/G3/2{G}F/ (3E/G/B/ (3e/g/b/ ag/f/ | f/e/d/c/ c/B/A/G/ BE E G3/4A// |]

